X: 17
T: le Branle de la Fosse aux Loups [Bm]
T: the Wolf Pit Branle
C: Boris Nortier
S: https://www.youtube.com/watch?v=20ZYmxHEhWc
S: https://www.youtube.com/watch?v=HXmGQm2lVdo
S: https://www.youtube.com/watch?v=Y8SzqfpaY9k
%Q: 1/4=156
V: 1
M: 6/8
L: 1/8
K: Bm
  F | "Bm"B2F Bdf |  "G"g2f edB |\
[1,3  "Em"e2G "A"cde |  "D"f2e "F#m"dc :|\
[2,4  "Bm"ded "F#m"cFc | "Bm"B3- Bz :|
|: f |  "G"gfg "(Em)"bgf |  "A"e3  Ace |\
[1,3   "D"fef "A"afe | "Bm"dBc de :|\
[2,4 "Bm"fed "F#m"edc | "Bm"B3- Bz :|

% %text https://www.dailymotion.com/video/x50hz1
%%begintext align
%% Fosse (or Foss\'e) aux Loups (Wolf Pit/Gap) or  is in
%% place names scattered around the French-speaking world.
%% The best-known is probably the street in Brussels.
%%endtext

%%sep 1 1 500

